svgs/solid/wheelchair-move.svg

<svg xmlns="http://www.w3.org/2000/svg" viewBox="0 0 448 512"><!--! Font Awesome Pro 6.2.0 by @fontawesome - https://fontawesome.com License - https://fontawesome.com/license (Commercial License) Copyright 2022 Fonticons, Inc. --><path d="M416 48c0 26.5-21.5 48-48 48s-48-21.5-48-48s21.5-48 48-48s48 21.5 48 48zM204.5 121.3c-5.4-2.5-11.7-1.9-16.4 1.7l-40.9 30.7c-14.1 10.6-34.2 7.7-44.8-6.4s-7.7-34.2 6.4-44.8l40.9-30.7c23.7-17.8 55.3-21 82.1-8.4l90.4 42.5c29.1 13.7 36.8 51.6 15.2 75.5L299.1 224h97.4c30.3 0 53 27.7 47.1 57.4L415.4 422.3c-3.5 17.3-20.3 28.6-37.7 25.1s-28.6-20.3-25.1-37.7L377 288H306.7c8.6 19.6 13.3 41.2 13.3 64c0 88.4-71.6 160-160 160S0 440.4 0 352s71.6-160 160-160c11.1 0 22 1.1 32.4 3.3l54.2-54.2-42.1-19.8zM160 448c53 0 96-43 96-96s-43-96-96-96s-96 43-96 96s43 96 96 96z"/></svg>

<svg xmlns="http://www.w3.org/2000/svg" viewBox="0 0 448 512"><!--! Font Awesome Pro 6.1.2 by @fontawesome - https://fontawesome.com License - https://fontawesome.com/license (Commercial License) Copyright 2022 Fonticons, Inc. --><path d="M416 48C416 74.51 394.5 96 368 96C341.5 96 320 74.51 320 48C320 21.49 341.5 0 368 0C394.5 0 416 21.49 416 48zM172.8 54.4C182.3 47.29 194.9 46 205.6 51.05L322.1 105.9C351.3 119.6 358.9 157.5 337.4 181.4L299.1 224H416C425.6 224 434.7 228.3 440.7 235.7C446.8 243.1 449.3 252.9 447.4 262.3L415.4 422.3C411.9 439.6 395.1 450.8 377.7 447.4C360.4 443.9 349.2 427.1 352.6 409.7L376.1 288H306.7C315.3 307.6 320 329.2 320 352C320 440.4 248.4 512 160 512C71.63 512 0 440.4 0 352C0 263.6 71.63 192 160 192C171.1 192 181.1 193.1 192.4 195.3L246.6 141.1L195.8 117.2L147.2 153.6C133.1 164.2 113 161.3 102.4 147.2C91.8 133.1 94.66 113 108.8 102.4L172.8 54.4zM160 448C213 448 256 405 256 352C256 298.1 213 256 160 256C106.1 256 64 298.1 64 352C64 405 106.1 448 160 448z"/></svg>
